X:982
T:Polska
T:efter Pelle Fors
O:Vikbolandet, Östergötland
S:efter Pelle Fors
B:Låtar efter Pelle Fors
R:Polska
Z:Björn Ek 2009-01-10
M:3/4
L:1/16
K:D
%
|:"_rit."+tenuto+D"^a tempo"(FA)(F D)(GB)(G D)(FA)F|A2a2- a^gbg g2a2|"_rit."+tenuto+D"^a tempo"(FA)(F D)(GB)(G D)(FA)F|
A2a2- a^gbg a2ae|=fefg afaf Tfeed|dcAc e2d2 d4:|
%
|:d2=fa a2fa a2fd|A2ce e2ce T=fedc|d2=fa a2fa a2fd|
A2ce e2ce T=fedc|d2e=f g2_ba gfdc|cdec d8:|
%
(:musicend:)
Andra reprisens 2:a & 4:e taker spelades av Hellström ibland så:
(:music:)
